X: 11821
T: Ellin Polkka
R: polka
M: 2/4
K: Aminor
L:1/16
|:"Am"E2AA A2AB|cBA2 A2AB|cBA2 A2AB|cBAB "Em"cde2|
"Am"E2AA A2AB|cBA2 ABcd|e2d2 "E7"c2B2|1 "Am"A4 A4:|2 "Am" A4 ABcd||
|:"C"e4 d2c2|"G"B4 BABc|"Dm"d2ed c2B2|"Am"A2EG ABcd|
"C"e4 d2c2|"G"B4 BABc|"Dm"d2ed c2B2|1 "Am"A2EG ABcd:|2 "Am" A4 Bceg||
|:"Am"a4 g4|"F"fede fedf|"G"g4 f4|"C"edcd e2de|
"F"f2g2 f2e2|"Dm"dedc B2cd|"Am"e2d2 "Em"c2B2|1 "Am"A4 Bceg:|2 "Am"A4 ABcA||
|:"E7"B2E2 B2E2|"Am"A^GAB cBAB|"E7"B2E2 ^G2B2|"Am"A4 A4|
"E7"B2E2 B2E2|"Am"A^GAB cBcd|"E7"e2d2 c2B2|"Am"A4 A4:|

